Origami/32x32/apps/tresorit.svg

<svg width="32" height="32" version="1" xmlns="http://www.w3.org/2000/svg">
 <path d="m16.078218 3.0009315a3.2974327 3.1835035 0 0 0 -1.726862 0.4246864l-9.7024952 5.408155a3.2974327 3.1835035 0 0 0 -1.6488608 2.7572771v10.817009a3.2974327 3.1835035 0 0 0 1.6487164 2.756997l9.7024946 5.408435a3.2974327 3.1835035 0 0 0 3.297433 0l9.702495-5.408435a3.2974327 3.1835035 0 0 0 1.648861 -2.757277v-10.817009a3.2974327 3.1835035 0 0 0 -1.648861 -2.7572771l-9.702495-5.408155a3.2974327 3.1835035 0 0 0 -1.570859 -0.4246864z" style="opacity:.2"/>
 <path d="m16.078218 2.0009312a3.2974327 3.1835035 0 0 0 -1.726862 0.4246864l-9.7024952 5.408155a3.2974327 3.1835035 0 0 0 -1.6488608 2.7572774v10.817009a3.2974327 3.1835035 0 0 0 1.6487164 2.756997l9.7024946 5.408435a3.2974327 3.1835035 0 0 0 3.297433 0l9.702495-5.408435a3.2974327 3.1835035 0 0 0 1.648861 -2.757277v-10.817009a3.2974327 3.1835035 0 0 0 -1.648861 -2.7572774l-9.702495-5.408155a3.2974327 3.1835035 0 0 0 -1.570859 -0.4246864z" style="fill:#4f4f4f"/>
 <path d="m3 10.888672v10.519531a3.2974327 3.1835035 0 0 0 1.6484375 2.757813l9.7031245 5.408203a3.2974327 3.1835035 0 0 0 1.648438 0.423828v-11a3.2974327 3.1835035 0 0 1 -1.691406 -0.423828l-9.7031252-5.408203a3.2974327 3.1835035 0 0 1 -1.6054688 -2.277344z" style="fill:#ffffff;opacity:.1"/>
 <path d="m16.034342 2a3.2974327 3.1835035 0 0 0 -1.726563 0.4257812l-9.7031243 5.4082032a3.2974327 3.1835035 0 0 0 -1.6445313 2.6386716 3.2974327 3.1835035 0 0 0 1.6445313 2.69336l9.7031243 5.408203a3.2974327 3.1835035 0 0 0 3.296876 0l9.703124-5.408203a3.2974327 3.1835035 0 0 0 1.644532 -2.638672 3.2974327 3.1835035 0 0 0 -1.644532 -2.6933596l-9.703124-5.4082032a3.2974327 3.1835035 0 0 0 -1.570313 -0.4257812z" style="fill:#ffffff;opacity:.2"/>
 <path d="m20.408385 4.9632864-17.408385 9.7411296v7.704037a3.2974327 3.1835035 0 0 0 0.02398 0.365036l24.599694-13.764729a3.2974327 3.1835035 0 0 0 -0.272248 -0.1749985l-6.943041-3.8704753z" style="opacity:.2"/>
 <path d="m20.408385 3.9632861-17.408385 9.7411299v7.704037a3.2974327 3.1835035 0 0 0 0.02398 0.365036l24.599694-13.764729a3.2974327 3.1835035 0 0 0 -0.272248 -0.1749985l-6.943041-3.8704753z" style="fill:#00cbec"/>
 <path d="m4.3046875 12.974609l-1.3046875 0.730469v7.703125a3.2974327 3.1835035 0 0 0 0.0234375 0.365235l8.4960935-4.753907-6.9140622-3.853515a3.2974327 3.1835035 0 0 1 -0.3007813 -0.191407z" style="fill:#00a7c2"/>
 <path d="m16.078125 2a3.2974327 3.1835035 0 0 0 -1.726563 0.4257812l-9.7031245 5.4082032a3.2974327 3.1835035 0 0 0 -1.6484375 2.7578126v1a3.2974327 3.1835035 0 0 1 1.6484375 -2.7578126l9.7031245-5.4082032a3.2974327 3.1835035 0 0 1 1.726563 -0.4257812 3.2974327 3.1835035 0 0 1 1.570313 0.4257812l9.703124 5.4082032a3.2974327 3.1835035 0 0 1 1.648438 2.7558596v-1a3.2974327 3.1835035 0 0 0 -1.648438 -2.7558596l-9.703124-5.4082032a3.2974327 3.1835035 0 0 0 -1.570313 -0.4257812z" style="fill:#ffffff;opacity:.1"/>
</svg>

<svg xmlns="http://www.w3.org/2000/svg" width="32" height="32" version="1">
 <path style="opacity:0.2" d="M 16.078218,3.0009315 A 3.2974327,3.1835035 0 0 0 14.351356,3.4256179 L 4.6488608,8.8337729 A 3.2974327,3.1835035 0 0 0 3,11.59105 l 0,10.817009 a 3.2974327,3.1835035 0 0 0 1.6487164,2.756997 l 9.7024946,5.408435 a 3.2974327,3.1835035 0 0 0 3.297433,0 l 9.702495,-5.408435 A 3.2974327,3.1835035 0 0 0 29,22.407779 L 29,11.59077 A 3.2974327,3.1835035 0 0 0 27.351139,8.8334929 L 17.648644,3.4253379 A 3.2974327,3.1835035 0 0 0 16.077785,3.0006515 Z"/>
 <path style="fill:#4f4f4f" d="M 16.078218,2.0009312 A 3.2974327,3.1835035 0 0 0 14.351356,2.4256176 L 4.6488608,7.8337726 A 3.2974327,3.1835035 0 0 0 3,10.59105 l 0,10.817009 a 3.2974327,3.1835035 0 0 0 1.6487164,2.756997 l 9.7024946,5.408435 a 3.2974327,3.1835035 0 0 0 3.297433,0 l 9.702495,-5.408435 A 3.2974327,3.1835035 0 0 0 29,21.407779 L 29,10.59077 A 3.2974327,3.1835035 0 0 0 27.351139,7.8334926 L 17.648644,2.4253376 A 3.2974327,3.1835035 0 0 0 16.077785,2.0006512 Z"/>
 <path style="opacity:0.1;fill:#ffffff" d="M 3 10.888672 L 3 21.408203 A 3.2974327 3.1835035 0 0 0 4.6484375 24.166016 L 14.351562 29.574219 A 3.2974327 3.1835035 0 0 0 16 29.998047 L 16 18.998047 A 3.2974327 3.1835035 0 0 1 14.308594 18.574219 L 4.6054688 13.166016 A 3.2974327 3.1835035 0 0 1 3 10.888672 z"/>
 <path style="opacity:0.2;fill:#ffffff" d="M 16.034342,2 A 3.2974327,3.1835035 0 0 0 14.307779,2.4257812 L 4.6046547,7.8339844 a 3.2974327,3.1835035 0 0 0 -1.6445313,2.6386716 3.2974327,3.1835035 0 0 0 1.6445313,2.69336 l 9.7031243,5.408203 a 3.2974327,3.1835035 0 0 0 3.296876,0 l 9.703124,-5.408203 A 3.2974327,3.1835035 0 0 0 28.952311,10.527344 3.2974327,3.1835035 0 0 0 27.307779,7.8339844 L 17.604655,2.4257812 A 3.2974327,3.1835035 0 0 0 16.034342,2 Z"/>
 <path style="opacity:0.2" d="M 20.408385,4.9632864 3,14.704416 3,22.408453 a 3.2974327,3.1835035 0 0 0 0.02398,0.365036 L 27.623674,9.0087602 A 3.2974327,3.1835035 0 0 0 27.351426,8.8337617 L 20.408385,4.9632864 Z"/>
 <path style="fill:#00cbec" d="M 20.408385,3.9632861 3,13.704416 3,21.408453 a 3.2974327,3.1835035 0 0 0 0.02398,0.365036 L 27.623674,8.0087599 A 3.2974327,3.1835035 0 0 0 27.351426,7.8337614 L 20.408385,3.9632861 Z"/>
 <path style="fill:#00a7c2" d="M 4.3046875 12.974609 L 3 13.705078 L 3 21.408203 A 3.2974327 3.1835035 0 0 0 3.0234375 21.773438 L 11.519531 17.019531 L 4.6054688 13.166016 A 3.2974327 3.1835035 0 0 1 4.3046875 12.974609 z"/>
 <path style="fill:#ffffff;opacity:0.1" d="M 16.078125 2 A 3.2974327 3.1835035 0 0 0 14.351562 2.4257812 L 4.6484375 7.8339844 A 3.2974327 3.1835035 0 0 0 3 10.591797 L 3 11.591797 A 3.2974327 3.1835035 0 0 1 4.6484375 8.8339844 L 14.351562 3.4257812 A 3.2974327 3.1835035 0 0 1 16.078125 3 A 3.2974327 3.1835035 0 0 1 17.648438 3.4257812 L 27.351562 8.8339844 A 3.2974327 3.1835035 0 0 1 29 11.589844 L 29 10.589844 A 3.2974327 3.1835035 0 0 0 27.351562 7.8339844 L 17.648438 2.4257812 A 3.2974327 3.1835035 0 0 0 16.078125 2 z"/>
</svg>
